icon-svg/hfml-felix.svg

<?xml version="1.0" encoding="UTF-8" standalone="no"?>
<svg width="24" height="24" viewBox="0 0 24 24" version="1.1" xmlns="http://www.w3.org/2000/svg" xmlns:svg="http://www.w3.org/2000/svg">
  <path style="fill:#44739e" d="M 3.8796 11.6406 V 7.8296 H 5.0556 v 3.811 z m 0.441 -1.3663 0.011 -1.0234 H 7.5763 v 1.0234 z m 2.5913 1.3663 V 7.8296 h 1.176 v 3.811 z M 8.8935 11.6406 V 7.8296 h 1.176 v 3.811 z m 0.4953 -1.2847 v -0.9257 h 2.6947 v 0.9257 z m 0.0764 -1.5243 v -1.0017 h 2.82 v 1.0017 z M 12.9437 11.6406 V 7.8296 h 1.0127 l 1.7367 2.1503 h -0.7513 l 1.7367 -2.1503 h 1.0127 v 3.811 h -1.1324 v -0.9637 c 0 -0.3013 0.0074 -0.5843 0.0217 -0.8493 0.0143 -0.265 0.0437 -0.5353 0.087 -0.8113 l 0.1143 0.3647 -1.2847 1.459 h -0.3593 l -1.3067 -1.4807 0.136 -0.343 c 0.0437 0.276 0.0727 0.5463 0.087 0.8113 0.0143 0.265 0.0217 0.548 0.0217 0.8493 v 0.9637 h -1.1324 z M 2 16.1719 V 12.3609 H 3.176 V 16.1719 Z M 2.4953 14.8872 V 13.9616 H 5.19 v 0.9257 z m 0.0763 -1.5243 v -1.0017 h 2.82 v 1.0017 z M 6.0505 16.1719 V 12.3609 h 3.6094 v 0.9527 h -2.4827 v 1.9053 h 2.5807 v 0.9527 H 6.0505 Z m 0.6153 -1.4807 v -0.893 h 2.7927 v 0.893 z M 10.3893 16.1719 V 12.3609 h 1.176 v 2.809 h 1.693 v 1.0017 h -2.8687 z M 15.054 16.1719 H 13.878 V 12.3609 h 1.176 z M 17.2672 16.1716 h -1.5274 L 19.0065 12.3523 h 1.5273 z M 15.7398 12.3523 h 1.5274 L 20.5339 16.1716 h -1.5273 z M 22 10.6392 h -2.3274 v -2.809 h -1.176 v 3.8107 h 2.6467 z M 6.7458 17.6045 4.9251 22.0002 h 2.5457 l 1.8207 -4.3957 z M 17.2544 6.3957 19.0751 2 H 16.5293 L 14.7087 6.3957 Z M 12.6026 3.4654 l -1.2137 2.9304 h 2.5457 l 1.2137 -2.9304 z M 11.3972 20.5349 l 1.2137 -2.9304 h -2.5457 l -1.2137 2.9304 z" />
</svg>

<svg xmlns="http://www.w3.org/2000/svg" viewBox="0 0 24 24"><path fill="#44739e" d="M3.88 11.64V7.83h1.176v3.81Zm.44-1.366.012-1.023h3.244v1.023Zm2.592 1.367V7.83h1.176v3.81Zm1.981 0V7.83h1.176v3.81Zm.496-1.285V9.43h2.695v.926Zm.076-1.524V7.83h2.82v1.002Zm3.479 2.809V7.83h1.012l1.737 2.15h-.751l1.737-2.15h1.012v3.81H16.56v-.963q0-.451.021-.85.022-.397.087-.81l.115.364-1.285 1.459h-.36l-1.306-1.48.136-.344q.066.414.087.812.021.397.022.849v.964ZM2 16.17v-3.81h1.176v3.81Zm.495-1.284v-.925H5.19v.925Zm.077-1.524V12.36h2.82v1.002Zm3.479 2.809V12.36H9.66v.953H7.177v1.905h2.58v.953Zm.615-1.48v-.894h2.793v.893Zm3.723 1.48V12.36h1.176v2.809h1.693v1.002Zm4.665 0h-1.176V12.36h1.176Zm2.213 0H15.74l3.266-3.82h1.528Zm-1.527-3.82h1.527l3.267 3.82h-1.527ZM22 10.64h-2.327V7.83h-1.176v3.81h2.646ZM6.746 17.605 4.926 22H7.47l1.82-4.395Zm10.508-11.21L19.075 2H16.53l-1.82 4.396Zm-4.651-2.93-1.214 2.93h2.546l1.213-2.93Zm-1.206 17.07 1.214-2.93h-2.546l-1.214 2.93Z"/></svg>
